icons/mini/play-pause.svg

<svg width="20" height="20" viewBox="0 0 20 20" fill="none" xmlns="http://www.w3.org/2000/svg">
<path d="M12.75 4C12.3358 4 12 4.33579 12 4.75V15.25C12 15.6642 12.3358 16 12.75 16H13.25C13.6642 16 14 15.6642 14 15.25V4.75C14 4.33579 13.6642 4 13.25 4H12.75Z" fill="#0F172A"/>
<path d="M17.75 4C17.3358 4 17 4.33579 17 4.75V15.25C17 15.6642 17.3358 16 17.75 16H18.25C18.6642 16 19 15.6642 19 15.25V4.75C19 4.33579 18.6642 4 18.25 4H17.75Z" fill="#0F172A"/>
<path d="M3.28824 4.81859C2.28891 4.20135 1 4.9202 1 6.09478V13.9053C1 15.0798 2.2889 15.7987 3.28824 15.1815L9.61101 11.2762C10.56 10.6901 10.56 9.30998 9.61101 8.72382L3.28824 4.81859Z" fill="#0F172A"/>
</svg>

<svg xmlns="http://www.w3.org/2000/svg" viewBox="0 0 20 20" fill="currentColor" aria-hidden="true" data-slot="icon">
  <path d="M12.75 4a.75.75 0 0 0-.75.75v10.5c0 .414.336.75.75.75h.5a.75.75 0 0 0 .75-.75V4.75a.75.75 0 0 0-.75-.75h-.5ZM17.75 4a.75.75 0 0 0-.75.75v10.5c0 .414.336.75.75.75h.5a.75.75 0 0 0 .75-.75V4.75a.75.75 0 0 0-.75-.75h-.5ZM3.288 4.819A1.5 1.5 0 0 0 1 6.095v7.81a1.5 1.5 0 0 0 2.288 1.277l6.323-3.906a1.5 1.5 0 0 0 0-2.552L3.288 4.819Z"/>
</svg>
